gruupUp/img/footer/logo.svg

<svg width="129" height="40" viewBox="0 0 129 40" fill="none" xmlns="http://www.w3.org/2000/svg">
<path fill-rule="evenodd" clip-rule="evenodd" d="M47.2429 25.8146C48.3159 25.8146 49.3635 25.7135 50.3857 25.5113C51.4079 25.3091 52.3323 25.0203 53.1587 24.6447V16.9108H46.7862V19.6621H49.4831V22.5217C48.8016 22.6661 48.1202 22.7383 47.4387 22.7383C45.9742 22.7383 44.8904 22.3412 44.1872 21.5468C43.484 20.7525 43.1323 19.5321 43.1323 17.8856C43.1323 16.297 43.4695 15.1163 44.1437 14.3436C44.8179 13.5709 45.8437 13.1846 47.2212 13.1846C47.9752 13.1846 48.682 13.2893 49.3417 13.4987C50.0015 13.7081 50.6866 14.0439 51.397 14.5061L52.6802 11.6248C52.0568 11.1193 51.2484 10.7221 50.2552 10.4333C49.262 10.1444 48.2072 10 47.0907 10C45.4668 10 44.0458 10.3213 42.8279 10.964C41.6099 11.6067 40.6674 12.5238 40.0005 13.7153C39.3335 14.9069 39 16.297 39 17.8856C39 19.5176 39.3335 20.9294 40.0005 22.1209C40.6674 23.3124 41.6208 24.2259 42.8605 24.8614C44.1002 25.4969 45.561 25.8146 47.2429 25.8146ZM58.5598 25.6196V20.0954C58.5598 18.5211 59.3863 17.734 61.0392 17.734C61.6192 17.734 62.2209 17.8784 62.8444 18.1673V14.5927C62.5544 14.4339 62.1412 14.3544 61.6047 14.3544C60.8797 14.3544 60.2273 14.535 59.6473 14.896C59.0673 15.2571 58.6468 15.777 58.3858 16.4558L58.1466 14.6144H54.4492C54.5652 15.5387 54.6232 16.593 54.6232 17.7773V25.6196H58.5598ZM70.3333 24.1465C69.6229 25.2441 68.5717 25.7929 67.1797 25.7929C65.7733 25.7929 64.7257 25.403 64.037 24.6231C63.3482 23.8432 63.0039 22.6517 63.0039 21.0485V14.6144H66.9405V21.1568C66.9405 22.24 67.4117 22.7816 68.3542 22.7816C68.9052 22.7816 69.351 22.5867 69.6917 22.1967C70.0325 21.8068 70.2029 21.2868 70.2029 20.6369V14.6144H74.183V25.6196H70.3333V24.1465ZM79.7362 25.7929C81.1282 25.7929 82.1794 25.2441 82.8899 24.1465V25.6196H86.7395V14.6144H82.7594V20.6369C82.7594 21.2868 82.589 21.8068 82.2483 22.1967C81.9075 22.5867 81.4617 22.7816 80.9107 22.7816C79.9682 22.7816 79.497 22.24 79.497 21.1568V14.6144H75.5604V21.0485C75.5604 22.6517 75.9048 23.8432 76.5935 24.6231C77.2822 25.403 78.3298 25.7929 79.7362 25.7929ZM92.1188 24.1899V30.2991H88.1822V17.7774C88.1822 16.5931 88.1242 15.5388 88.0082 14.6144H91.7055L91.923 16.3259C92.1985 15.7193 92.6553 15.2319 93.2932 14.8636C93.9312 14.4953 94.6562 14.3112 95.4681 14.3112C96.4106 14.3112 97.2516 14.5567 97.9911 15.0477C98.7305 15.5388 99.3105 16.2248 99.731 17.1058C100.151 17.9868 100.362 18.9978 100.362 20.1387C100.362 21.2652 100.155 22.2582 99.7419 23.1175C99.3286 23.9768 98.7523 24.6376 98.0128 25.0997C97.2733 25.5619 96.4251 25.793 95.4681 25.793C94.7432 25.793 94.0834 25.6522 93.489 25.3705C92.8945 25.0889 92.4378 24.6953 92.1188 24.1899ZM94.272 22.8683C93.5615 22.8683 93.0178 22.63 92.6408 22.1534C92.2638 21.6768 92.0753 20.9908 92.0753 20.0954C92.0753 19.171 92.2638 18.4706 92.6408 17.994C93.0178 17.5174 93.5615 17.2791 94.272 17.2791C94.968 17.2791 95.5008 17.5282 95.8706 18.0265C96.2403 18.5247 96.4252 19.2288 96.4252 20.1387C96.4252 21.0341 96.2439 21.7129 95.8814 22.1751C95.519 22.6373 94.9825 22.8683 94.272 22.8683ZM113.429 24.0924C112.248 25.2406 110.548 25.8147 108.329 25.8147C106.067 25.8147 104.356 25.2478 103.196 24.114C102.036 22.9803 101.456 21.3158 101.456 19.1205V10.195H105.437V19.2722C105.437 20.3843 105.687 21.2364 106.187 21.8285C106.687 22.4207 107.401 22.7167 108.329 22.7167C109.243 22.7167 109.946 22.417 110.439 21.8177C110.932 21.2183 111.178 20.3698 111.178 19.2722V10.195H115.202V19.1205C115.202 21.2869 114.611 22.9442 113.429 24.0924ZM120.69 30.2991V24.1899C121.009 24.6953 121.466 25.0889 122.06 25.3705C122.655 25.6522 123.314 25.793 124.039 25.793C124.996 25.793 125.845 25.5619 126.584 25.0997C127.324 24.6376 127.9 23.9768 128.313 23.1175C128.726 22.2582 128.933 21.2652 128.933 20.1387C128.933 18.9978 128.723 17.9868 128.302 17.1058C127.882 16.2248 127.302 15.5388 126.562 15.0477C125.823 14.5567 124.982 14.3112 124.039 14.3112C123.227 14.3112 122.503 14.4953 121.865 14.8636C121.227 15.2319 120.77 15.7193 120.494 16.3259L120.277 14.6144H116.579C116.695 15.5388 116.753 16.5931 116.753 17.7774V30.2991H120.69ZM121.212 22.1534C121.589 22.63 122.133 22.8683 122.843 22.8683C123.554 22.8683 124.09 22.6373 124.453 22.1751C124.815 21.7129 124.996 21.0341 124.996 20.1387C124.996 19.2288 124.811 18.5247 124.442 18.0265C124.072 17.5282 123.539 17.2791 122.843 17.2791C122.133 17.2791 121.589 17.5174 121.212 17.994C120.835 18.4706 120.647 19.171 120.647 20.0954C120.647 20.9908 120.835 21.6768 121.212 22.1534Z" fill="white"/>
<mask id="mask0" mask-type="alpha" maskUnits="userSpaceOnUse" x="0" y="0" width="32" height="40">
<path d="M19.8398 20.8087C19.7056 20.8251 19.569 20.8336 19.4303 20.8336C19.2916 20.8336 19.1549 20.8251 19.0207 20.8086L18.9968 20.8086L18.9967 20.8056C17.3545 20.5919 16.086 19.1808 16.086 17.4718C16.086 15.7628 17.3545 14.3517 18.9967 14.138L18.9968 14.1269L19.0935 14.1268C19.2042 14.1157 19.3166 14.11 19.4303 14.11C19.5407 14.11 19.6499 14.1154 19.7575 14.1259L30.0749 14.1119C30.0928 14.111 30.1108 14.1105 30.129 14.1105C30.5001 14.1105 30.8256 14.306 31.0086 14.5998C31.0894 14.7112 31.1304 14.8229 31.1479 14.9595C31.1593 15.0209 31.1652 15.0842 31.1652 15.1489C31.1652 15.192 31.1626 15.2345 31.1575 15.2762L31.1547 15.473C31.142 16.3263 31.1178 17.0981 31.0822 17.7884L31.0831 17.9347C31.0831 18.7031 31.0032 19.509 30.8434 20.3524C30.7722 20.8028 30.6894 21.1695 30.595 21.4528C29.5387 25.5091 26.7668 30.3715 22.2794 36.0399C21.8738 36.5523 21.4099 37.0159 20.8972 37.4213C17.2783 40.2827 12.0399 39.7051 9.12934 36.1486L9.04185 36.0399L8.86666 35.8179C5.11236 31.0454 2.5832 26.8486 1.27918 23.2273C0.426435 21.2089 0 19.0344 0 16.7041C0 14.4133 0.411597 12.2497 1.23479 10.2134C2.05798 8.17707 3.18987 6.40325 4.63046 4.89193C6.07105 3.3806 7.78076 2.18745 9.75959 1.31247C11.7384 0.437489 13.8676 0 16.1473 0C17.9203 0 19.4559 0.174996 20.754 0.524987C22.0102 0.863689 23.0737 1.24709 23.9445 1.67518L24.0309 1.71814C24.388 1.89211 24.6996 2.07472 24.979 2.27475C26.3232 3.16992 27.2096 4.70414 27.2096 6.44649C27.2096 9.20822 24.9825 11.447 22.2352 11.447C21.6529 11.447 21.094 11.3465 20.5747 11.1617C19.877 10.9516 19.448 10.646 18.7593 10.4282C17.9045 10.1577 17.0654 10.0225 16.2422 10.0225C15.3241 10.0225 14.485 10.1895 13.7252 10.5236C12.9653 10.8577 12.3083 11.319 11.7542 11.9077C11.2002 12.4963 10.7648 13.2042 10.4482 14.0315C10.1316 14.8587 9.9733 15.7496 9.9733 16.7041C9.9733 17.6587 10.1474 18.5495 10.4957 19.3768C10.844 20.2041 11.3189 20.912 11.9205 21.5006C12.522 22.0892 13.2265 22.5506 14.0339 22.8847C14.8412 23.2188 15.704 23.3858 16.6222 23.3858C17.6987 23.3858 18.6802 23.1551 19.5667 22.6938C20.0953 22.4186 20.7591 21.8868 21.558 21.0983C21.5902 21.0665 21.6083 21.0231 21.6083 20.9779C21.6083 20.8899 21.5412 20.8176 21.4553 20.8094L21.439 20.8086L19.8398 20.8087Z" fill="white"/>
</mask>
<g mask="url(#mask0)">
<path d="M19.8398 20.8087C19.7056 20.8251 19.569 20.8336 19.4303 20.8336C19.2916 20.8336 19.1549 20.8251 19.0207 20.8086L18.9968 20.8086L18.9967 20.8056C17.3545 20.5919 16.086 19.1808 16.086 17.4718C16.086 15.7628 17.3545 14.3517 18.9967 14.138L18.9968 14.1269L19.0935 14.1268C19.2042 14.1157 19.3166 14.11 19.4303 14.11C19.5407 14.11 19.6499 14.1154 19.7575 14.1259L30.0749 14.1119C30.0928 14.111 30.1108 14.1105 30.129 14.1105C30.5001 14.1105 30.8256 14.306 31.0086 14.5998C31.0894 14.7112 31.1304 14.8229 31.1479 14.9595C31.1593 15.0209 31.1652 15.0842 31.1652 15.1489C31.1652 15.192 31.1626 15.2345 31.1575 15.2762L31.1547 15.473C31.142 16.3263 31.1178 17.0981 31.0822 17.7884L31.0831 17.9347C31.0831 18.7031 31.0032 19.509 30.8434 20.3524C30.7722 20.8028 30.6894 21.1695 30.595 21.4528C29.5387 25.5091 26.7668 30.3715 22.2794 36.0399C21.8738 36.5523 21.4099 37.0159 20.8972 37.4213C17.2783 40.2827 12.0399 39.7051 9.12934 36.1486L9.04185 36.0399L8.86666 35.8179C5.11236 31.0454 2.5832 26.8486 1.27918 23.2273C0.426435 21.2089 0 19.0344 0 16.7041C0 14.4133 0.411597 12.2497 1.23479 10.2134C2.05798 8.17707 3.18987 6.40325 4.63046 4.89193C6.07105 3.3806 7.78076 2.18745 9.75959 1.31247C11.7384 0.437489 13.8676 0 16.1473 0C17.9203 0 19.4559 0.174996 20.754 0.524987C22.0102 0.863689 23.0737 1.24709 23.9445 1.67518L24.0309 1.71814C24.388 1.89211 24.6996 2.07472 24.979 2.27475C26.3232 3.16992 27.2096 4.70414 27.2096 6.44649C27.2096 9.20822 24.9825 11.447 22.2352 11.447C21.6529 11.447 21.094 11.3465 20.5747 11.1617C19.877 10.9516 19.448 10.646 18.7593 10.4282C17.9045 10.1577 17.0654 10.0225 16.2422 10.0225C15.3241 10.0225 14.485 10.1895 13.7252 10.5236C12.9653 10.8577 12.3083 11.319 11.7542 11.9077C11.2002 12.4963 10.7648 13.2042 10.4482 14.0315C10.1316 14.8587 9.9733 15.7496 9.9733 16.7041C9.9733 17.6587 10.1474 18.5495 10.4957 19.3768C10.844 20.2041 11.3189 20.912 11.9205 21.5006C12.522 22.0892 13.2265 22.5506 14.0339 22.8847C14.8412 23.2188 15.704 23.3858 16.6222 23.3858C17.6987 23.3858 18.6802 23.1551 19.5667 22.6938C20.0953 22.4186 20.7591 21.8868 21.558 21.0983C21.5902 21.0665 21.6083 21.0231 21.6083 20.9779C21.6083 20.8899 21.5412 20.8176 21.4553 20.8094L21.439 20.8086L19.8398 20.8087Z" fill="url(#paint0_linear)"/>
<mask id="mask1" mask-type="alpha" maskUnits="userSpaceOnUse" x="-1" y="-1" width="33" height="41">
<path d="M6.6136 -0.120117H24.7098C28.4238 -0.120117 31.4347 3.65203 31.4347 8.3052V30.977C31.4347 35.6301 28.4238 39.4023 24.7098 39.4023H6.6136C2.89952 39.4023 -0.111328 35.6301 -0.111328 30.977V8.3052C-0.111328 3.65203 2.89952 -0.120117 6.6136 -0.120117Z" fill="white"/>
</mask>
<g mask="url(#mask1)">
<path d="M6.6136 -0.120117H24.7098C28.4238 -0.120117 31.4347 3.65203 31.4347 8.3052V30.977C31.4347 35.6301 28.4238 39.4023 24.7098 39.4023H6.6136C2.89952 39.4023 -0.111328 35.6301 -0.111328 30.977V8.3052C-0.111328 3.65203 2.89952 -0.120117 6.6136 -0.120117Z" fill="url(#paint1_linear)"/>
<g filter="url(#filter0_d)">
<path d="M-6.72412 -2.84473H20.5949C26.2152 -2.84473 30.7713 1.71137 30.7713 7.33161C30.7713 7.62195 30.7588 7.91215 30.734 8.20142C29.8848 18.1004 24.0599 23.9988 15.6115 26.0075C9.9792 27.3466 3.44056 31.3286 -4.00444 37.9535L-6.72412 -2.84473Z" fill="#21232B"/>
</g>
<path d="M-6.72412 -2.84473H20.5949C26.2152 -2.84473 30.7713 1.71137 30.7713 7.33161C30.7713 7.62195 30.7588 7.91215 30.734 8.20142C29.8848 18.1004 24.0599 23.9988 15.6115 26.0075C9.9792 27.3466 3.44056 31.3286 -4.00444 37.9535L-6.72412 -2.84473Z" fill="#FC9C35"/>
<g filter="url(#filter1_d)">
<path d="M29.1471 28.847C25.2072 29.7908 21.899 31.0906 19.2224 32.7466C16.5459 34.4025 13.7995 36.5543 10.9833 39.2019C21.0038 41.5934 26.5576 40.7427 27.6448 36.6497C28.7319 32.5567 29.2327 29.9558 29.1471 28.847Z" fill="#21232B"/>
</g>
<path d="M29.1471 28.847C25.2072 29.7908 21.899 31.0906 19.2224 32.7466C16.5459 34.4025 13.7995 36.5543 10.9833 39.2019C21.0038 41.5934 26.5576 40.7427 27.6448 36.6497C28.7319 32.5567 29.2327 29.9558 29.1471 28.847Z" fill="#F17109"/>
<g filter="url(#filter2_d)">
<path d="M-1.41187 15.4373C2.67008 15.4373 12.5145 6.40053 12.5145 0.365727C12.5145 -5.66907 6.44237 0.365727 2.36041 0.365727C-1.72154 0.365727 -1.41187 -2.11499 -1.41187 3.91981C-1.41187 9.95461 -5.49383 15.4373 -1.41187 15.4373Z" fill="#21232B"/>
</g>
<path d="M-1.41187 15.4373C2.67008 15.4373 12.5145 6.40053 12.5145 0.365727C12.5145 -5.66907 6.44237 0.365727 2.36041 0.365727C-1.72154 0.365727 -1.41187 -2.11499 -1.41187 3.91981C-1.41187 9.95461 -5.49383 15.4373 -1.41187 15.4373Z" fill="#FFAF3E"/>
</g>
</g>
<defs>
<filter id="filter0_d" x="-36.7241" y="-30.8447" width="97.4954" height="100.798" filterUnits="userSpaceOnUse" color-interpolation-filters="sRGB">
<feFlood flood-opacity="0" result="BackgroundImageFix"/>
<feColorMatrix in="SourceAlpha" type="matrix" values="0 0 0 0 0 0 0 0 0 0 0 0 0 0 0 0 0 0 127 0" result="hardAlpha"/>
<feOffset dy="2"/>
<feGaussianBlur stdDeviation="15"/>
<feColorMatrix type="matrix" values="0 0 0 0 0.886747 0 0 0 0 0.482948 0 0 0 0 0.0511637 0 0 0 1 0"/>
<feBlend mode="normal" in2="BackgroundImageFix" result="effect1_dropShadow"/>
<feBlend mode="normal" in="SourceGraphic" in2="effect1_dropShadow" result="shape"/>
</filter>
<filter id="filter1_d" x="-13.0166" y="-7.15332" width="66.1731" height="59.6779" filterUnits="userSpaceOnUse" color-interpolation-filters="sRGB">
<feFlood flood-opacity="0" result="BackgroundImageFix"/>
<feColorMatrix in="SourceAlpha" type="matrix" values="0 0 0 0 0 0 0 0 0 0 0 0 0 0 0 0 0 0 127 0" result="hardAlpha"/>
<feOffset dy="-12"/>
<feGaussianBlur stdDeviation="12"/>
<feColorMatrix type="matrix" values="0 0 0 0 0.762002 0 0 0 0 0.319897 0 0 0 0 0 0 0 0 0.348421 0"/>
<feBlend mode="normal" in2="BackgroundImageFix" result="effect1_dropShadow"/>
<feBlend mode="normal" in="SourceGraphic" in2="effect1_dropShadow" result="shape"/>
</filter>
<filter id="filter2_d" x="-27.2261" y="-24.3164" width="63.7406" height="65.7537" filterUnits="userSpaceOnUse" color-interpolation-filters="sRGB">
<feFlood flood-opacity="0" result="BackgroundImageFix"/>
<feColorMatrix in="SourceAlpha" type="matrix" values="0 0 0 0 0 0 0 0 0 0 0 0 0 0 0 0 0 0 127 0" result="hardAlpha"/>
<feOffset dy="2"/>
<feGaussianBlur stdDeviation="12"/>
<feColorMatrix type="matrix" values="0 0 0 0 0.917856 0 0 0 0 0.548137 0 0 0 0 0.15146 0 0 0 1 0"/>
<feBlend mode="normal" in2="BackgroundImageFix" result="effect1_dropShadow"/>
<feBlend mode="normal" in="SourceGraphic" in2="effect1_dropShadow" result="shape"/>
</filter>
<linearGradient id="paint0_linear" x1="15.5826" y1="-10.2122" x2="15.5826" y2="39.2415" gradientUnits="userSpaceOnUse">
<stop stop-color="#FAD961"/>
<stop offset="0.456203" stop-color="#F8931F"/>
<stop offset="1" stop-color="#F76B1C"/>
</linearGradient>
<linearGradient id="paint1_linear" x1="8.96046" y1="4.59589" x2="20.0601" y2="36.5107" gradientUnits="userSpaceOnUse">
<stop stop-color="#FFB23F"/>
<stop offset="1" stop-color="#F97E26"/>
</linearGradient>
</defs>
</svg>

<svg width="129" height="40" fill="none" xmlns="http://www.w3.org/2000/svg"><path fill-rule="evenodd" clip-rule="evenodd" d="M47.243 25.815c1.073 0 2.12-.102 3.143-.304a12.592 12.592 0 002.773-.866V16.91h-6.373v2.751h2.697v2.86a9.838 9.838 0 01-2.044.216c-1.465 0-2.549-.397-3.252-1.191-.703-.794-1.055-2.015-1.055-3.661 0-1.589.337-2.77 1.012-3.542.674-.773 1.7-1.16 3.077-1.16.754 0 1.461.105 2.12.315.66.21 1.346.545 2.056 1.007l1.283-2.881c-.623-.506-1.432-.903-2.425-1.192A11.277 11.277 0 0047.091 10c-1.624 0-3.045.321-4.263.964A6.817 6.817 0 0040 13.715c-.666 1.192-1 2.582-1 4.17 0 1.633.334 3.044 1 4.236a6.705 6.705 0 002.86 2.74c1.24.636 2.701.954 4.383.954zm11.317-.195v-5.525c0-1.574.826-2.361 2.48-2.361.58 0 1.18.144 1.804.433v-3.574c-.29-.16-.703-.239-1.24-.239a3.63 3.63 0 00-1.957.542c-.58.361-1 .881-1.261 1.56l-.24-1.842H54.45c.116.925.174 1.979.174 3.163v7.843h3.937zm11.773-1.474c-.71 1.098-1.761 1.647-3.153 1.647-1.407 0-2.454-.39-3.143-1.17-.689-.78-1.033-1.971-1.033-3.575v-6.434h3.937v6.543c0 1.083.47 1.625 1.413 1.625.551 0 .997-.195 1.338-.585.34-.39.51-.91.51-1.56v-6.023h3.981V25.62h-3.85v-1.474zm9.403 1.647c1.392 0 2.443-.549 3.154-1.646v1.473h3.85V14.614h-3.98v6.023c0 .65-.171 1.17-.512 1.56-.34.39-.786.585-1.337.585-.943 0-1.414-.542-1.414-1.625v-6.543H75.56v6.434c0 1.604.345 2.795 1.034 3.575.688.78 1.736 1.17 3.142 1.17zM92.12 24.19v6.11h-3.937V17.776c0-1.184-.058-2.238-.174-3.163h3.698l.217 1.712c.275-.607.732-1.094 1.37-1.462.638-.369 1.363-.553 2.175-.553.943 0 1.784.246 2.523.737.74.49 1.32 1.177 1.74 2.058.42.88.631 1.892.631 3.033 0 1.126-.207 2.12-.62 2.979-.413.859-.99 1.52-1.73 1.982-.739.462-1.587.693-2.544.693-.725 0-1.385-.14-1.979-.422-.595-.282-1.051-.676-1.37-1.181zm2.153-1.322c-.71 0-1.254-.238-1.631-.715-.377-.476-.566-1.162-.566-2.058 0-.924.189-1.624.566-2.101.377-.477.92-.715 1.631-.715.696 0 1.229.25 1.599.747.37.499.554 1.203.554 2.113 0 .895-.181 1.574-.544 2.036-.362.462-.898.693-1.609.693zm19.157 1.224c-1.181 1.149-2.881 1.723-5.1 1.723-2.262 0-3.973-.567-5.133-1.701-1.16-1.134-1.74-2.798-1.74-4.994v-8.925h3.981v9.077c0 1.112.25 1.964.75 2.556.5.593 1.214.889 2.142.889.914 0 1.617-.3 2.11-.9.493-.599.739-1.447.739-2.545v-9.077h4.024v8.925c0 2.167-.591 3.824-1.773 4.972zm7.261 6.207v-6.11c.319.506.776.9 1.37 1.181a4.564 4.564 0 001.979.423c.957 0 1.806-.231 2.545-.693.74-.462 1.316-1.123 1.729-1.983.413-.859.62-1.852.62-2.978 0-1.141-.21-2.152-.631-3.033-.42-.881-1-1.567-1.74-2.058-.739-.491-1.58-.737-2.523-.737-.812 0-1.536.184-2.174.553-.638.368-1.095.855-1.371 1.462l-.217-1.712h-3.698c.116.925.174 1.98.174 3.163V30.3h3.937zm.522-8.146c.377.477.921.715 1.631.715.711 0 1.247-.23 1.61-.693.362-.462.543-1.14.543-2.036 0-.91-.185-1.614-.554-2.113-.37-.498-.903-.747-1.599-.747-.71 0-1.254.238-1.631.715s-.565 1.177-.565 2.101c0 .896.188 1.582.565 2.058z" fill="#fff"/><mask id="a" maskUnits="userSpaceOnUse" x="0" y="0" width="32" height="40"><path d="M19.84 20.809a3.374 3.374 0 01-.82 0h-.023v-.003a3.356 3.356 0 01-2.911-3.334 3.356 3.356 0 012.91-3.334v-.011h.098a3.376 3.376 0 01.663-.001l10.318-.014.054-.002c.371 0 .697.196.88.49a.74.74 0 01.139.36 1.037 1.037 0 01.01.316l-.003.197a63.736 63.736 0 01-.073 2.315l.001.147c0 .768-.08 1.574-.24 2.417-.07.45-.154.817-.248 1.1-1.056 4.057-3.828 8.92-8.316 14.588a8.443 8.443 0 01-13.15.109l-.087-.11-.175-.221c-3.755-4.773-6.284-8.97-7.588-12.59C.426 21.207 0 19.033 0 16.703c0-2.29.412-4.454 1.235-6.49.823-2.037 1.955-3.81 3.395-5.322 1.441-1.511 3.15-2.705 5.13-3.58C11.738.437 13.868 0 16.147 0c1.773 0 3.309.175 4.607.525 1.256.339 2.32.722 3.19 1.15l.087.043c.357.174.669.357.948.557a5.003 5.003 0 012.23 4.171c0 2.762-2.226 5.001-4.974 5.001-.582 0-1.141-.1-1.66-.285-.698-.21-1.127-.516-1.816-.734a8.315 8.315 0 00-2.517-.405c-.918 0-1.757.167-2.517.5a5.98 5.98 0 00-1.97 1.385 6.39 6.39 0 00-1.307 2.123 7.414 7.414 0 00-.475 2.673c0 .955.174 1.845.523 2.673A6.413 6.413 0 0011.92 21.5a6.701 6.701 0 004.702 1.885c1.076 0 2.057-.23 2.944-.692.528-.275 1.192-.807 1.991-1.596a.17.17 0 00-.103-.289H19.84z" fill="#fff"/></mask><g mask="url(#a)"><path d="M19.84 20.809a3.374 3.374 0 01-.82 0h-.023v-.003a3.356 3.356 0 01-2.911-3.334 3.356 3.356 0 012.91-3.334v-.011h.098a3.376 3.376 0 01.663-.001l10.318-.014.054-.002c.371 0 .697.196.88.49a.74.74 0 01.139.36 1.037 1.037 0 01.01.316l-.003.197a63.736 63.736 0 01-.073 2.315l.001.147c0 .768-.08 1.574-.24 2.417-.07.45-.154.817-.248 1.1-1.056 4.057-3.828 8.92-8.316 14.588a8.443 8.443 0 01-13.15.109l-.087-.11-.175-.221c-3.755-4.773-6.284-8.97-7.588-12.59C.426 21.207 0 19.033 0 16.703c0-2.29.412-4.454 1.235-6.49.823-2.037 1.955-3.81 3.395-5.322 1.441-1.511 3.15-2.705 5.13-3.58C11.738.437 13.868 0 16.147 0c1.773 0 3.309.175 4.607.525 1.256.339 2.32.722 3.19 1.15l.087.043c.357.174.669.357.948.557a5.003 5.003 0 012.23 4.171c0 2.762-2.226 5.001-4.974 5.001-.582 0-1.141-.1-1.66-.285-.698-.21-1.127-.516-1.816-.734a8.315 8.315 0 00-2.517-.405c-.918 0-1.757.167-2.517.5a5.98 5.98 0 00-1.97 1.385 6.39 6.39 0 00-1.307 2.123 7.414 7.414 0 00-.475 2.673c0 .955.174 1.845.523 2.673A6.413 6.413 0 0011.92 21.5a6.701 6.701 0 004.702 1.885c1.076 0 2.057-.23 2.944-.692.528-.275 1.192-.807 1.991-1.596a.17.17 0 00-.103-.289H19.84z" fill="url(#paint0_linear)"/><mask id="b" maskUnits="userSpaceOnUse" x="-1" y="-1" width="33" height="41"><path d="M6.614-.12H24.71c3.714 0 6.725 3.772 6.725 8.425v22.672c0 4.653-3.011 8.425-6.725 8.425H6.614c-3.714 0-6.725-3.772-6.725-8.425V8.305c0-4.653 3.01-8.425 6.725-8.425z" fill="#fff"/></mask><g mask="url(#b)"><path d="M6.614-.12H24.71c3.714 0 6.725 3.772 6.725 8.425v22.672c0 4.653-3.011 8.425-6.725 8.425H6.614c-3.714 0-6.725-3.772-6.725-8.425V8.305c0-4.653 3.01-8.425 6.725-8.425z" fill="url(#paint1_linear)"/><g filter="url(#filter0_d)"><path d="M-6.724-2.845h27.319c5.62 0 10.176 4.556 10.176 10.177 0 .29-.012.58-.037.87-.85 9.898-6.674 15.797-15.123 17.806-5.632 1.339-12.17 5.32-19.615 11.945l-2.72-40.798z" fill="#21232B"/></g><path d="M-6.724-2.845h27.319c5.62 0 10.176 4.556 10.176 10.177 0 .29-.012.58-.037.87-.85 9.898-6.674 15.797-15.123 17.806-5.632 1.339-12.17 5.32-19.615 11.945l-2.72-40.798z" fill="#FC9C35"/><g filter="url(#filter1_d)"><path d="M29.147 28.847c-3.94.944-7.248 2.244-9.925 3.9-2.676 1.656-5.423 3.807-8.239 6.455 10.02 2.391 15.575 1.54 16.662-2.552 1.087-4.093 1.588-6.694 1.502-7.803z" fill="#21232B"/></g><path d="M29.147 28.847c-3.94.944-7.248 2.244-9.925 3.9-2.676 1.656-5.423 3.807-8.239 6.455 10.02 2.391 15.575 1.54 16.662-2.552 1.087-4.093 1.588-6.694 1.502-7.803z" fill="#F17109"/><g filter="url(#filter2_d)"><path d="M-1.412 15.437c4.082 0 13.927-9.036 13.927-15.071s-6.073 0-10.155 0c-4.082 0-3.772-2.481-3.772 3.554s-4.082 11.517 0 11.517z" fill="#21232B"/></g><path d="M-1.412 15.437c4.082 0 13.927-9.036 13.927-15.071s-6.073 0-10.155 0c-4.082 0-3.772-2.481-3.772 3.554s-4.082 11.517 0 11.517z" fill="#FFAF3E"/></g></g><defs><filter id="filter0_d" x="-36.724" y="-30.845" width="97.495" height="100.798" filterUnits="userSpaceOnUse" color-interpolation-filters="sRGB"><feFlood flood-opacity="0" result="BackgroundImageFix"/><feColorMatrix in="SourceAlpha" values="0 0 0 0 0 0 0 0 0 0 0 0 0 0 0 0 0 0 127 0" result="hardAlpha"/><feOffset dy="2"/><feGaussianBlur stdDeviation="15"/><feColorMatrix values="0 0 0 0 0.886747 0 0 0 0 0.482948 0 0 0 0 0.0511637 0 0 0 1 0"/><feBlend in2="BackgroundImageFix" result="effect1_dropShadow"/><feBlend in="SourceGraphic" in2="effect1_dropShadow" result="shape"/></filter><filter id="filter1_d" x="-13.017" y="-7.153" width="66.173" height="59.678" filterUnits="userSpaceOnUse" color-interpolation-filters="sRGB"><feFlood flood-opacity="0" result="BackgroundImageFix"/><feColorMatrix in="SourceAlpha" values="0 0 0 0 0 0 0 0 0 0 0 0 0 0 0 0 0 0 127 0" result="hardAlpha"/><feOffset dy="-12"/><feGaussianBlur stdDeviation="12"/><feColorMatrix values="0 0 0 0 0.762002 0 0 0 0 0.319897 0 0 0 0 0 0 0 0 0.348421 0"/><feBlend in2="BackgroundImageFix" result="effect1_dropShadow"/><feBlend in="SourceGraphic" in2="effect1_dropShadow" result="shape"/></filter><filter id="filter2_d" x="-27.226" y="-24.316" width="63.741" height="65.754" filterUnits="userSpaceOnUse" color-interpolation-filters="sRGB"><feFlood flood-opacity="0" result="BackgroundImageFix"/><feColorMatrix in="SourceAlpha" values="0 0 0 0 0 0 0 0 0 0 0 0 0 0 0 0 0 0 127 0" result="hardAlpha"/><feOffset dy="2"/><feGaussianBlur stdDeviation="12"/><feColorMatrix values="0 0 0 0 0.917856 0 0 0 0 0.548137 0 0 0 0 0.15146 0 0 0 1 0"/><feBlend in2="BackgroundImageFix" result="effect1_dropShadow"/><feBlend in="SourceGraphic" in2="effect1_dropShadow" result="shape"/></filter><linearGradient id="paint0_linear" x1="15.583" y1="-10.212" x2="15.583" y2="39.242" gradientUnits="userSpaceOnUse"><stop stop-color="#FAD961"/><stop offset=".456" stop-color="#F8931F"/><stop offset="1" stop-color="#F76B1C"/></linearGradient><linearGradient id="paint1_linear" x1="8.96" y1="4.596" x2="20.06" y2="36.511" gradientUnits="userSpaceOnUse"><stop stop-color="#FFB23F"/><stop offset="1" stop-color="#F97E26"/></linearGradient></defs></svg>
